src/assets/icons/konnectors/bouyguesbox.svg

<svg width="150" height="47" viewBox="0 0 150 47" xmlns="http://www.w3.org/2000/svg"><title>bouygues</title><g fill="#009DCC" fill-rule="evenodd"><path d="M9.152 16.048c-1.12-1.29-2.737-1.63-4.066-1.63-1.223 0-2.572.538-3 1.003V9.568c0-.547-.443-.99-.99-.99-.546 0-.99.443-.99.99L.104 25.55c0 .47.294.873.71 1.034 1.625.673 3.442.77 4.272.77 1.29 0 2.945-.33 4.066-1.62 1.12-1.287 1.28-3.09 1.28-4.844 0-1.756-.16-3.556-1.28-4.842zm-1.447 8.375c-.634.792-1.618 1.073-2.62 1.073-.78 0-1.846-.166-2.73-.48-.14-.046-.243-.18-.243-.335v-6.218c0-.703.297-1.177.63-1.49.41-.384 1.322-.686 2.344-.686 1.022 0 1.985.28 2.62 1.073.64.798.715 2.105.715 3.53 0 1.426-.075 2.733-.715 3.533zM21.202 16.07c-1.122-1.308-2.742-1.65-4.067-1.65-1.325-.003-2.945.342-4.066 1.65-1.12 1.304-1.282 3.023-1.282 4.7 0 1.68.16 3.63 1.28 4.935 1.122 1.308 2.742 1.653 4.067 1.65 1.325 0 2.945-.342 4.067-1.65 1.12-1.304 1.28-3.154 1.28-4.934 0-1.78-.16-3.396-1.28-4.7zm-1.448 8.306c-.634.803-1.597 1.117-2.62 1.117-1.02 0-1.984-.314-2.618-1.117-.64-.81-.716-2.16-.716-3.605 0-1.446.077-2.56.716-3.37.634-.805 1.597-1.116 2.62-1.116 1.02 0 1.984.31 2.618 1.115.64.81.716 1.926.716 3.37 0 1.446-.077 2.795-.716 3.606zM33.545 15.687c0-.54-.437-.977-.977-.977s-.976.437-.976.977l-.002 9.175c0 .166-.12.318-.247.37-.126.05-.667.262-2.51.262-.925 0-1.905-.37-2.504-1.16-.606-.8-.68-2.194-.68-3.62v-5.027c0-.54-.436-.977-.975-.977-.54 0-.977.437-.977.977v5.024c0 1.757.11 3.643 1.25 5.023.998 1.206 2.666 1.63 3.885 1.63.773 0 2.465.053 3.99-.515.42-.14.72-.685.72-1.152l.002-10.01zM40.47 24.002c-.054.115-.17.19-.296.19-.153-.003-.263-.162-.305-.222-.31-.444-2.737-7.17-3.263-8.63-.184-.496-.742-.752-1.236-.57-.492.183-.75.738-.57 1.233l3.154 8.364c.37.99.903 1.55 1.685 1.83l-1.918 5.078c-.19.5.062 1.06.563 1.25.5.19 1.06-.062 1.25-.562l6.04-15.953c.182-.493-.07-1.05-.557-1.236-.493-.19-1.056.063-1.245.56L40.47 24zM56.05 16.197c0-.426-.252-.794-.616-.962-1.65-.708-3.52-.812-4.367-.812-1.288 0-2.944.334-4.066 1.625-1.118 1.286-1.28 3.254-1.28 5.01 0 1.756.162 3.374 1.28 4.66 1.123 1.29 2.738 1.64 4.067 1.64 1.223 0 2.573-.55 3-1.013v1.678c0 .9-.215 1.61-.648 2.11-.43.495-1.037.745-1.807.745-.51 0-1.035-.066-1.565-.196-.526-.13-1.42-.556-1.736-.708-.316-.152-.902-.035-1.168.393-.266.428-.09 1.068.33 1.298.418.23.95.545 2.066.833.712.184 1.41.27 2.073.27.728 0 1.378-.117 1.932-.362s1.022-.582 1.39-1.003c.365-.42.646-.93.834-1.515.185-.58.28-1.21.28-1.866V16.197zm-2.01 7.107c0 .703-.295 1.177-.627 1.49-.41.384-1.324.7-2.345.7-1.022 0-1.985-.294-2.62-1.087-.64-.8-.715-1.924-.715-3.35 0-1.425.076-2.9.716-3.698.633-.794 1.617-1.078 2.618-1.078.775 0 1.832.168 2.713.48.153.052.262.196.262.366v6.176zM67.412 15.687c0-.54-.437-.977-.976-.977-.54 0-.977.437-.977.977l-.002 9.175c0 .166-.122.318-.248.37-.125.05-.667.262-2.51.262-.924 0-1.904-.37-2.504-1.16-.605-.8-.677-2.194-.677-3.62l-.002-5.027c0-.54-.437-.977-.976-.977-.54 0-.976.437-.976.977v5.024c0 1.757.11 3.643 1.25 5.023.997 1.206 2.666 1.63 3.884 1.63.774 0 2.466.053 3.99-.515.42-.14.72-.685.72-1.152l.002-10.01zM78.364 16.048c-1.404-1.647-3.66-1.632-4.122-1.63-.427.003-2.66.014-4.01 1.63-.613.73-.855 1.533-1.023 2.24-.212.89-.24 1.712-.24 2.592 0 1.655.142 3.56 1.262 4.847 1.12 1.29 2.74 1.63 4.066 1.63 1.464 0 3.058-.123 4.23-.932.228-.14.385-.37.463-.592.04-.1.06-.21.06-.324 0-.504-.407-.91-.91-.91-.117 0-.228.024-.332.06-.06.022-.133.067-.297.154-.865.484-1.692.71-3.212.674-1.022 0-1.985-.28-2.62-1.073-.59-.74-.68-1.917-.693-3.22h7.63c.572 0 1.035-.463 1.035-1.034 0-2.783-1.286-4.112-1.286-4.112zm-7.33 3.37c-.004-.208-.03-1.663 1.16-2.553.73-.544 1.524-.58 2.01-.58.484 0 1.4-.02 2.207.593 1.193.904 1.204 2.338 1.2 2.54h-6.575zM87.49 17.03c.07.016.14.026.216.026.485 0 .878-.395.878-.88v-.034c0-.283-.18-.7-.524-.915-.85-.588-2.147-.81-3.276-.81-1.13 0-2.325.287-3.068.85-.75.57-1.132 1.375-1.132 2.39 0 1.863 1.377 3.217 4.093 3.777 1.2.252 2.507.87 2.507 1.938 0 .54-.257 1.126-.694 1.442-.7.508-1.71.61-2.207.613-.656.006-1.686-.137-2.553-.623-.037-.026-.078-.048-.12-.07-.134-.074-.287-.116-.45-.116-.52 0-.94.422-.94.944 0 .222.075.426.203.587.077.104.174.2.29.27 1.173.813 2.843.936 3.602.936.717 0 1.413-.15 2.18-.387.552-.172 1.03-.42 1.423-.744.393-.323.705-.718.927-1.174.222-.457.38-1.135.38-1.68 0-2.498-2.216-3.485-4.152-3.863-1.644-.342-2.477-1.048-2.477-1.852 0-.233.057-.436.172-.604.118-.172.268-.31.45-.41.185-.102.403-.178.646-.225.25-.048.525-.075.92-.073.557.002 1.742.254 2.253.507.144.07.297.136.453.175z"/><g transform="translate(93.968)"><path d="M32.952 45.508c3.963 2.737 11.804-1.734 17.512-10.002 5.71-8.268 7.124-17.18 3.16-19.915-3.963-2.736-11.606 1.507-17.315 9.775-5.71 8.268-7.32 17.407-3.358 20.143zM23.067 45.508c-3.963 2.737-11.804-1.734-17.512-10.002-5.71-8.268-7.124-17.18-3.162-19.915C6.357 12.855 14 17.098 19.71 25.366c5.708 8.268 7.32 17.407 3.357 20.143z"/><ellipse cx="28.006" cy="8.719" rx="18.21" ry="8.708"/></g><g><path d="M58.864 32.587h-.233c-.084 0-.152-.06-.152-.138v-2.353h-.76c-.084 0-.153-.062-.153-.138v-.22c0-.076.07-.137.154-.137h2.06c.085 0 .154.06.154.137v.22c0 .075-.07.137-.154.137h-.762v2.352c0 .076-.07.137-.154.137zM64.364 32.587h-1.858c-.085 0-.153-.06-.153-.138v-2.71c0-.076.07-.137.153-.137h1.858c.086 0 .155.06.155.137v.22c0 .075-.07.137-.156.137h-1.47v.744h1.23c.085 0 .153.062.153.136v.21c0 .075-.068.135-.154.135h-1.23v.774h1.47c.087 0 .156.06.156.136v.22c0 .076-.07.137-.156.137zM69.193 32.587h-1.858c-.086 0-.154-.06-.154-.138v-2.71c0-.076.07-.137.155-.137h.232c.086 0 .155.06.155.137v2.354h1.47c.086 0 .156.06.156.136v.22c0 .076-.07.137-.155.137zM73.617 32.587H71.76c-.085 0-.154-.06-.154-.138v-2.71c0-.076.068-.137.154-.137h1.857c.086 0 .155.06.155.137v.22c0 .075-.07.137-.155.137h-1.47v.744h1.23c.085 0 .153.062.153.136v.21c0 .075-.068.135-.154.135h-1.23v.774h1.47c.087 0 .156.06.156.136v.22c0 .076-.07.137-.155.137zM78.523 31.683l-.24-.038c-.072-.01-.143.025-.17.086-.04.125-.1.202-.184.275-.126.11-.297.174-.48.174-.186 0-.356-.064-.482-.175-.176-.154-.246-.32-.246-.907 0-.586.07-.757.246-.912.126-.11.296-.173.48-.173.185 0 .356.062.48.173.085.073.145.15.185.275.026.062.098.097.17.086l.24-.038c.046-.007.084-.032.11-.068.024-.035.028-.08.013-.12-.056-.17-.15-.31-.306-.447-.236-.21-.563-.315-.89-.315-.33 0-.657.105-.893.315-.336.297-.386.605-.386 1.22s.05.93.387 1.225c.236.21.564.314.892.314.327 0 .654-.105.89-.314.156-.137.25-.276.306-.447.015-.038.01-.083-.014-.12-.025-.034-.063-.06-.11-.067zM83.1 29.87c-.235-.21-.563-.314-.89-.314-.328 0-.656.105-.892.314-.337.298-.387.606-.387 1.22 0 .616.05.924.388 1.22.237.21.553.325.89.325.34 0 .655-.114.893-.324.337-.296.387-.604.387-1.22 0-.614-.05-.922-.386-1.22zm-.41 2.128c-.125.112-.303.167-.48.167-.178 0-.356-.055-.48-.167-.177-.156-.248-.32-.248-.907 0-.586.07-.752.247-.906.125-.11.295-.174.48-.174.183 0 .355.063.48.174.176.154.246.32.246.907s-.07.752-.247.908zM88.432 32.587H88.2c-.085 0-.155-.06-.155-.138v-1.466l-.633 1.517c-.025.05-.082.08-.142.08h-.23c-.063 0-.117-.03-.142-.08l-.652-1.527v1.476c0 .076-.07.137-.153.137h-.233c-.085 0-.154-.06-.154-.138v-2.71c0-.076.07-.137.154-.137h.233c.06 0 .114.03.14.08l.924 2.188.902-2.186c.022-.05.08-.08.14-.08h.232c.085 0 .154.06.154.136v2.71c0 .076-.07.137-.154.137z"/></g></g></svg>

<svg xmlns="http://www.w3.org/2000/svg" width="150" height="47" viewBox="0 0 150 47">
  <g fill="none" fill-rule="evenodd">
    <path fill="#019BC5" d="M9.152,16.048 C8.032,14.758 6.415,14.418 5.086,14.418 C3.863,14.418 2.514,14.956 2.086,15.421 L2.086,9.57 C2.086,9.023 1.643,8.58 1.096,8.58 C0.55,8.58 0.106,9.023 0.106,9.57 L0.104,25.55 C0.104,26.02 0.398,26.423 0.814,26.584 C2.439,27.257 4.256,27.354 5.086,27.354 C6.376,27.354 8.031,27.024 9.152,25.734 C10.272,24.447 10.432,22.644 10.432,20.89 C10.432,19.134 10.272,17.334 9.152,16.048 L9.152,16.048 Z M7.705,24.423 C7.071,25.215 6.087,25.496 5.085,25.496 C4.305,25.496 3.239,25.33 2.355,25.016 C2.215,24.97 2.112,24.836 2.112,24.681 L2.112,18.464 C2.112,17.761 2.409,17.287 2.742,16.974 C3.152,16.59 4.064,16.288 5.086,16.288 C6.108,16.288 7.071,16.568 7.706,17.361 C8.346,18.159 8.421,19.466 8.421,20.891 C8.421,22.317 8.347,23.624 7.707,24.424 L7.705,24.423 Z M21.202,16.07 C20.08,14.762 18.46,14.42 17.135,14.42 C15.81,14.417 14.19,14.762 13.069,16.07 C11.949,17.374 11.786,19.093 11.786,20.77 C11.786,22.45 11.946,24.4 13.066,25.705 C14.188,27.013 15.808,27.358 17.133,27.355 C18.458,27.355 20.078,27.013 21.2,25.705 C22.32,24.401 22.48,22.551 22.48,20.771 C22.48,18.991 22.32,17.376 21.2,16.071 L21.202,16.07 Z M19.754,24.376 C19.12,25.179 18.157,25.493 17.134,25.493 C16.114,25.493 15.15,25.179 14.516,24.376 C13.876,23.566 13.8,22.216 13.8,20.771 C13.8,19.326 13.877,18.211 14.516,17.401 C15.15,16.597 16.113,16.286 17.136,16.286 C18.156,16.286 19.12,16.596 19.754,17.401 C20.394,18.211 20.47,19.327 20.47,20.771 C20.47,22.217 20.393,23.566 19.754,24.377 L19.754,24.376 Z M33.544,15.686 C33.544,15.146 33.108,14.71 32.568,14.71 C32.028,14.71 31.592,15.147 31.592,15.687 L31.59,24.862 C31.59,25.028 31.47,25.18 31.343,25.232 C31.217,25.282 30.676,25.494 28.833,25.494 C27.908,25.494 26.928,25.124 26.329,24.334 C25.722,23.534 25.649,22.14 25.649,20.714 L25.649,15.687 C25.649,15.147 25.212,14.71 24.673,14.71 C24.133,14.71 23.696,15.147 23.696,15.687 L23.696,20.711 C23.696,22.469 23.806,24.355 24.946,25.735 C25.944,26.941 27.612,27.365 28.831,27.365 C29.604,27.365 31.296,27.418 32.821,26.85 C33.241,26.71 33.541,26.164 33.541,25.697 L33.543,15.687 L33.544,15.686 Z M40.47,24.002 C40.416,24.117 40.3,24.192 40.174,24.192 C40.021,24.189 39.911,24.03 39.869,23.97 C39.559,23.526 37.131,16.8 36.605,15.34 C36.421,14.844 35.863,14.588 35.369,14.77 C34.877,14.953 34.619,15.508 34.799,16.003 L37.953,24.367 C38.323,25.357 38.856,25.917 39.638,26.197 L37.718,31.275 C37.528,31.775 37.781,32.335 38.282,32.525 C38.782,32.715 39.342,32.463 39.532,31.963 L45.572,16.01 C45.754,15.517 45.502,14.96 45.015,14.774 C44.522,14.584 43.959,14.837 43.77,15.334 L40.47,24 L40.47,24.002 Z M56.05,16.197 C56.05,15.771 55.798,15.403 55.434,15.235 C53.784,14.527 51.914,14.423 51.067,14.423 C49.779,14.423 48.123,14.757 47.001,16.048 C45.884,17.334 45.721,19.302 45.721,21.058 C45.721,22.814 45.884,24.432 47.001,25.718 C48.125,27.008 49.741,27.358 51.069,27.358 C52.292,27.358 53.642,26.808 54.069,26.345 L54.069,28.023 C54.069,28.923 53.854,29.633 53.421,30.133 C52.991,30.628 52.384,30.878 51.614,30.878 C51.104,30.878 50.579,30.812 50.049,30.682 C49.523,30.552 48.629,30.126 48.313,29.974 C47.997,29.822 47.411,29.939 47.145,30.367 C46.879,30.795 47.055,31.435 47.475,31.665 C47.893,31.895 48.425,32.21 49.541,32.498 C50.253,32.682 50.951,32.768 51.614,32.768 C52.342,32.768 52.992,32.651 53.546,32.406 C54.1,32.161 54.568,31.824 54.936,31.403 C55.301,30.983 55.582,30.473 55.77,29.888 C55.954,29.308 56.05,28.678 56.05,28.022 L56.05,16.197 L56.05,16.197 Z M54.04,23.304 C54.04,24.007 53.745,24.481 53.413,24.794 C53.003,25.178 52.089,25.494 51.068,25.494 C50.046,25.494 49.083,25.2 48.448,24.407 C47.808,23.607 47.733,22.483 47.733,21.057 C47.733,19.632 47.809,18.157 48.449,17.359 C49.081,16.564 50.065,16.279 51.066,16.279 C51.841,16.279 52.898,16.449 53.779,16.759 C53.932,16.812 54.041,16.956 54.041,17.126 L54.041,23.302 L54.04,23.304 Z M67.412,15.687 C67.412,15.147 66.975,14.71 66.436,14.71 C65.896,14.71 65.459,15.147 65.459,15.687 L65.456,24.862 C65.456,25.028 65.334,25.18 65.208,25.232 C65.082,25.282 64.54,25.494 62.698,25.494 C61.773,25.494 60.793,25.124 60.193,24.334 C59.588,23.534 59.516,22.14 59.516,20.714 L59.514,15.687 C59.514,15.147 59.077,14.71 58.538,14.71 C57.998,14.71 57.562,15.147 57.562,15.687 L57.562,20.711 C57.562,22.469 57.672,24.355 58.812,25.735 C59.809,26.941 61.478,27.365 62.696,27.365 C63.47,27.365 65.162,27.418 66.686,26.85 C67.106,26.71 67.406,26.164 67.406,25.697 L67.408,15.687 L67.412,15.687 Z M78.364,16.047 C76.96,14.401 74.704,14.417 74.242,14.417 C73.815,14.421 71.582,14.432 70.232,16.047 C69.619,16.777 69.377,17.581 69.209,18.287 C68.996,19.177 68.969,20 68.969,20.88 C68.969,22.535 69.109,24.44 70.229,25.727 C71.349,27.017 72.969,27.357 74.296,27.357 C75.76,27.357 77.354,27.234 78.526,26.425 C78.754,26.285 78.911,26.055 78.989,25.833 C79.029,25.733 79.049,25.623 79.049,25.509 C79.049,25.004 78.642,24.599 78.139,24.599 C78.022,24.599 77.911,24.622 77.807,24.659 C77.747,24.679 77.674,24.725 77.51,24.812 C76.646,25.296 75.82,25.522 74.3,25.486 C73.277,25.486 72.314,25.206 71.68,24.413 C71.09,23.673 71,22.496 70.986,21.193 L78.616,21.193 C79.188,21.193 79.651,20.73 79.651,20.159 C79.651,17.376 78.366,16.047 78.366,16.047 L78.364,16.047 Z M71.034,19.417 C71.03,19.21 71.004,17.755 72.194,16.865 C72.924,16.321 73.718,16.285 74.204,16.285 C74.688,16.285 75.604,16.265 76.411,16.878 C77.605,17.782 77.616,19.216 77.611,19.418 L71.037,19.418 L71.034,19.417 Z M87.49,17.03 L87.49,17.025 C87.334,16.986 87.181,16.92 87.037,16.85 C86.526,16.597 85.341,16.345 84.784,16.343 C84.389,16.341 84.114,16.368 83.864,16.416 C83.621,16.463 83.403,16.54 83.218,16.64 C83.036,16.74 82.886,16.88 82.768,17.05 C82.653,17.218 82.596,17.421 82.596,17.654 C82.596,18.458 83.429,19.164 85.073,19.506 C87.009,19.884 89.225,20.871 89.225,23.369 C89.225,23.914 89.067,24.592 88.845,25.049 C88.623,25.505 88.311,25.9 87.918,26.223 C87.525,26.547 87.047,26.795 86.495,26.967 C85.728,27.204 85.032,27.354 84.315,27.354 C83.556,27.354 81.886,27.231 80.713,26.419 C80.597,26.349 80.5,26.252 80.423,26.149 C80.295,25.988 80.22,25.784 80.22,25.562 C80.22,25.04 80.64,24.618 81.16,24.618 C81.323,24.618 81.476,24.66 81.61,24.734 C81.652,24.756 81.693,24.778 81.73,24.804 C82.597,25.29 83.627,25.433 84.283,25.427 C84.78,25.424 85.79,25.322 86.49,24.814 C86.927,24.498 87.184,23.912 87.184,23.372 C87.184,22.304 85.877,21.686 84.677,21.434 C81.961,20.874 80.584,19.52 80.584,17.657 C80.584,16.642 80.966,15.837 81.716,15.267 C82.459,14.704 83.654,14.417 84.784,14.417 C85.913,14.417 87.21,14.639 88.06,15.227 C88.404,15.442 88.584,15.859 88.584,16.142 L88.584,16.176 C88.584,16.661 88.191,17.056 87.706,17.056 C87.63,17.056 87.56,17.046 87.49,17.03 Z M58.864,32.587 L58.631,32.587 C58.548,32.587 58.481,32.527 58.481,32.449 L58.481,30.095 L57.721,30.095 C57.636,30.095 57.567,30.033 57.567,29.957 L57.567,29.737 C57.567,29.661 57.637,29.6 57.721,29.6 L59.781,29.6 C59.866,29.6 59.935,29.66 59.935,29.738 L59.935,29.958 C59.935,30.033 59.865,30.095 59.781,30.095 L59.019,30.095 L59.019,32.447 C59.019,32.523 58.949,32.584 58.865,32.584 L58.864,32.587 Z M64.364,32.587 L62.506,32.587 C62.421,32.587 62.353,32.527 62.353,32.449 L62.353,29.739 C62.353,29.662 62.423,29.601 62.506,29.601 L64.364,29.601 C64.45,29.601 64.519,29.661 64.519,29.738 L64.519,29.958 C64.519,30.032 64.449,30.094 64.362,30.094 L62.892,30.094 L62.892,30.838 L64.122,30.838 C64.207,30.838 64.275,30.9 64.275,30.974 L64.275,31.184 C64.275,31.259 64.207,31.319 64.121,31.319 L62.891,31.319 L62.891,32.094 L64.361,32.094 C64.448,32.094 64.517,32.154 64.517,32.23 L64.517,32.45 C64.517,32.527 64.447,32.588 64.361,32.588 L64.364,32.587 Z M69.194,32.587 L67.334,32.587 C67.249,32.587 67.181,32.527 67.181,32.449 L67.181,29.739 C67.181,29.662 67.251,29.601 67.337,29.601 L67.569,29.601 C67.655,29.601 67.724,29.661 67.724,29.738 L67.724,32.091 L69.194,32.091 C69.28,32.091 69.35,32.151 69.35,32.227 L69.35,32.447 C69.35,32.522 69.28,32.583 69.194,32.583 L69.194,32.587 Z M73.617,32.587 L71.76,32.587 C71.675,32.587 71.606,32.527 71.606,32.449 L71.606,29.739 C71.606,29.662 71.674,29.601 71.76,29.601 L73.617,29.601 C73.703,29.601 73.772,29.661 73.772,29.738 L73.772,29.958 C73.772,30.032 73.702,30.094 73.617,30.094 L72.147,30.094 L72.147,30.838 L73.377,30.838 C73.462,30.838 73.53,30.9 73.53,30.974 L73.53,31.184 C73.53,31.259 73.462,31.319 73.376,31.319 L72.146,31.319 L72.146,32.094 L73.616,32.094 C73.703,32.094 73.772,32.154 73.772,32.23 L73.772,32.45 C73.772,32.527 73.702,32.588 73.617,32.588 L73.617,32.587 Z M78.523,31.683 L78.519,31.683 C78.567,31.69 78.605,31.716 78.629,31.75 C78.653,31.787 78.658,31.832 78.643,31.87 C78.588,32.041 78.493,32.18 78.338,32.318 C78.101,32.527 77.774,32.632 77.448,32.632 C77.12,32.632 76.792,32.529 76.556,32.319 C76.219,32.024 76.169,31.709 76.169,31.094 C76.169,30.479 76.219,30.171 76.555,29.874 C76.791,29.664 77.119,29.56 77.449,29.56 C77.775,29.56 78.102,29.665 78.339,29.875 C78.495,30.011 78.589,30.151 78.645,30.321 C78.66,30.361 78.656,30.407 78.632,30.441 C78.606,30.478 78.568,30.503 78.522,30.511 L78.282,30.549 C78.21,30.56 78.138,30.525 78.112,30.462 C78.072,30.337 78.012,30.26 77.927,30.187 C77.803,30.076 77.632,30.014 77.447,30.014 C77.263,30.014 77.093,30.077 76.967,30.187 C76.79,30.342 76.72,30.513 76.72,31.099 C76.72,31.686 76.79,31.852 76.966,32.006 C77.092,32.117 77.262,32.181 77.449,32.181 C77.631,32.181 77.802,32.117 77.929,32.007 C78.013,31.934 78.073,31.857 78.113,31.731 C78.14,31.67 78.211,31.635 78.283,31.645 L78.523,31.683 Z M83.1,29.87 L83.103,29.871 C83.44,30.171 83.49,30.478 83.49,31.091 C83.49,31.708 83.44,32.016 83.103,32.311 C82.865,32.521 82.551,32.635 82.211,32.635 C81.873,32.635 81.557,32.52 81.321,32.31 C80.981,32.014 80.931,31.706 80.931,31.09 C80.931,30.476 80.981,30.168 81.318,29.87 C81.554,29.661 81.882,29.556 82.21,29.556 C82.537,29.556 82.865,29.66 83.1,29.87 Z M82.69,31.998 L82.687,32.002 C82.864,31.846 82.934,31.681 82.934,31.094 C82.934,30.507 82.864,30.341 82.689,30.187 C82.563,30.076 82.391,30.012 82.209,30.012 C82.023,30.012 81.853,30.076 81.729,30.186 C81.552,30.341 81.482,30.506 81.482,31.091 C81.482,31.678 81.553,31.842 81.73,31.998 C81.854,32.11 82.032,32.165 82.21,32.165 C82.387,32.165 82.565,32.11 82.69,31.998 Z M88.432,32.588 L88.2,32.588 C88.115,32.588 88.045,32.528 88.045,32.448 L88.045,30.983 L87.412,32.5 C87.387,32.55 87.33,32.58 87.27,32.58 L87.04,32.58 C86.977,32.58 86.923,32.55 86.898,32.5 L86.246,30.973 L86.246,32.449 C86.246,32.524 86.176,32.585 86.093,32.585 L85.86,32.585 C85.775,32.585 85.706,32.525 85.706,32.447 L85.706,29.737 C85.706,29.661 85.776,29.6 85.86,29.6 L86.093,29.6 C86.153,29.6 86.207,29.63 86.233,29.68 L87.157,31.87 L88.059,29.683 C88.079,29.633 88.139,29.603 88.199,29.603 L88.429,29.603 C88.515,29.603 88.584,29.663 88.584,29.739 L88.584,32.449 C88.584,32.524 88.514,32.585 88.43,32.585 L88.432,32.588 Z"/>
    <g transform="translate(93.968)">
      <path fill="#E86026" d="M32.952,45.508 C36.915,48.245 44.756,43.774 50.464,35.506 C56.174,27.238 57.588,18.326 53.624,15.591 C49.661,12.856 42.018,17.099 36.309,25.367 C30.599,33.635 28.989,42.774 32.949,45.51 L32.952,45.508 Z"/>
      <path fill="#005B9A" d="M23.067,45.508 C19.104,48.245 11.263,43.774 5.555,35.506 C-0.155,27.238 -1.569,18.326 2.393,15.591 C6.357,12.856 14,17.1 19.71,25.367 C25.418,33.635 27.03,42.774 23.067,45.51 L23.067,45.508 Z"/>
      <ellipse cx="28.006" cy="8.719" fill="#019BC5" rx="18.21" ry="8.708"/>
    </g>
  </g>
</svg>
